!!!OTL: 323. Prinz Eugen vor Kussel (= Festung Lille; 1708).
!!!ARE: Europa, Mitteleuropa, Deutschland
!!!SCT: E0323
!!!TXL: @@DE
!!!YEM: Copyright 1995, estate of Helmut Schaffrath.
**kern	**text
*ICvox	*
*M4/4	*
*met(c)	*
*k[f#]	*
*G:	*
=1	=1
!LO:TX:a:t=Fahnenlieder der alten Ʒeit. Nr. 20.	!
{4g	Lil-
4d	-je_du
4B	al-
4d	-ler-
=2	=2
4g	-ſchön-
4g	-ſte
4g	Stadt,
4r}	.
=3	=3
{4b	du
4b	du
4a	biſt
4b	ſo
=4	=4
4cc	ſchön
4b	und
4a	glatt,
4r}	.
=5	=5
{4a	ſchau-
4a	-e
4dd	mei-
4dd	-ne
=6	=6
8aL	Lie-
8gJ	.
8f#L	-bes-
8eJ	.
4f#	-flam-
4d}	-men,
=7	=7
{4a	ich
4a	lieb
4dd	dich
4dd	vor
=8	=8
8aL	al-
8gJ	.
8f#L	-len
8eJ	.
4f#	Da-
4d}	-men,
=9	=9
{4g	mein
4g	herʒ-
4a	-al-
4a	-ler-
=10	=10
4b	-ſchön-
4b	-ſter
4a	Schatʒ,
4r	.
=11	=11
4b/	ſchön-
4b/	-ſter
4a	Schatʒ!
4r}	.
=12	=12
{4.dd	mein
8cc	herʒ-
4b	-al-
4b	-ler-
=13	=13
4a	-ſchön-
4a	-ſter
4g	Schatʒ!
4r}	.
==	==
!!!AGN: historisches Lied, Festung Lille (1708)
!!!ONB: ESAC (Essen Associative Code) Database: ERK1
!!!AMT: simple quadruple
!!!AIN: vox
!!!EED: Helmut Schaffrath
!!!EEV: 1.0
!!!GTL: Historische Lieder
!!!URL-scan: https://rosdok.uni-rostock.de/mcrviewer/recordIdentifier/rosdok_ppn745177662/iview2/phys_0136.iview2?x=-544.0401362767932&y=217.33854268072173&scale=0.4722427387526479&rotation=0&layout=singlePageLayout
!!!ENC: Anna Maria Matuszewska
!!!EEV: 2024/06/12
*-	*-
